X:358
T: Shiyue hongdeng
N: C1859
O: China, Qinghai Xiunhua
S: I, 228]
N: Sala
R: Shange]
M: 2/4
L: 1/16
K: G
e2e4d2 | e8 | e8 | g2e2d2Bd | B4B2d2
e4g2e2 | d2edB2d2 | d3eB2A2 | G2AGE2G2 | A2ABG2A2
B6d2 | d2B2A2G2 | E6G2
A2B2G2A2 | B4B2d2 | d2B2A2G2 | E4E2G2
A3BG2A2 | B6d2 | A2B2A2G2 | E8 | E4z4

